X: 37821
T: Sonny's
R: mazurka
M: 3/4
K: Gmajor
|:DG GF GB|DB BA Bd|cB AG FG|AG FE D2|
DG GF GB|DB BA Bd|cB AG FG|1 A2 G4:|2 A2 G2 Bc||
|:d2 de dc|BA G2 AB|c2 cd cB|A4 Bc|
d2 de dc|BA G2 AB|cB AG FG|1 A2 G2 Bc:|2 A2 G4||
DG GF GB|DB BA Bd|cB AG FG|AG FE D2|
DG GF GB|DB BA Bd|cB AG FG|A2 G2:|
d2 de dc|BA G2 AB|c2 cd cB|A3 A Bc|
d2 de dc|BA G2 AB|cB AG FA|A2 G2:|

